X: 1001
T: Khasitsky Tanets
D: Konsonans Retro "a Podolian Affair"
Z: 2011 John Chambers <jc:trillian.mit.edu>
M: 4/4
L: 1/8
K: D exp _B_e^F
A, "A"\
|: "D"D2E2 F2G2 | "D"A4- AGFE | "D"D2E2 F2G2 | "Cm"ABGB "D"A2z2 |
|  "D"D2E2 F2G2 | "D"AcB2- BAB=B | "Cm"c=B_BA "D"GAF2- | "Cm"FDEC "D"D2 z2 :|
"B"\
|: "Cm"G,CEG FEDC | "Cm"FGGG FEDC | "Cm"B,CEG FEDC | "Cm"FAG2- GAB=B |
|  "Cm"c=B_BA BAGF | "D"GAF2- F2ED | "Cm"C=B,CD EGFE | "Cm"EDCE "D"D2 :|
"C"\
|: G3G FEDC | "Cm"G3G FEDC | "Cm"FGAG FEDC | "Cm"FAG2- GAB=B |
|  "Cm"c=B_BA BAGF | "D"GAF2- F2ED | "Cm"C=B,CD EGFE | "Cm"EDCE "D"D2 :|


%%sep 5 1 500

